apps/symbolic/office-calendar-symbolic.svg

<?xml version="1.0" encoding="UTF-8" standalone="no"?>
<svg
   xmlns:dc="http://purl.org/dc/elements/1.1/"
   xmlns:cc="http://creativecommons.org/ns#"
   xmlns:rdf="http://www.w3.org/1999/02/22-rdf-syntax-ns#"
   xmlns:svg="http://www.w3.org/2000/svg"
   xmlns="http://www.w3.org/2000/svg"
   id="svg4"
   version="1.1"
   width="16"
   height="16">
  <metadata
     id="metadata10">
    <rdf:RDF>
      <cc:Work
         rdf:about="">
        <dc:format>image/svg+xml</dc:format>
        <dc:type
           rdf:resource="http://purl.org/dc/dcmitype/StillImage" />
      </cc:Work>
    </rdf:RDF>
  </metadata>
  <defs
     id="defs8" />
  <path
     id="path2"
     fill="#666"
     overflow="visible"
     color="#bebebe"
     style="isolation:auto;mix-blend-mode:normal;marker:none"
     d="M5.5 1c-.277 0-.5.227-.5.5V2h1v-.5c0-.277-.223-.5-.5-.5zM6 2v.5a.499.499 0 1 1-1 0V2H3.5C2.669 2 2 2.669 2 3.5v9c0 .831.669 1.5 1.5 1.5h9c.831 0 1.5-.669 1.5-1.5v-9c0-.831-.669-1.5-1.5-1.5H11v.5a.499.499 0 1 1-1 0V2zm4 0h1v-.5a.499.499 0 1 0-1 0zM3.5 6h9c.277 0 .5.223.5.5v6c0 .277-.223.5-.5.5h-9a.499.499 0 0 1-.5-.5v-6c0-.277.223-.5.5-.5z" />
</svg>

<?xml version="1.0" encoding="UTF-8" standalone="no"?>
<svg
   xmlns:dc="http://purl.org/dc/elements/1.1/"
   xmlns:cc="http://creativecommons.org/ns#"
   xmlns:rdf="http://www.w3.org/1999/02/22-rdf-syntax-ns#"
   xmlns:svg="http://www.w3.org/2000/svg"
   xmlns="http://www.w3.org/2000/svg"
   id="svg2996"
   height="16"
   width="16"
   version="1.1">
  <defs
     id="defs2998" />
  <metadata
     id="metadata3001">
    <rdf:RDF>
      <cc:Work
         rdf:about="">
        <dc:format>image/svg+xml</dc:format>
        <dc:type
           rdf:resource="http://purl.org/dc/dcmitype/StillImage" />
        <dc:title />
      </cc:Work>
    </rdf:RDF>
  </metadata>
  <path
     id="path4256"
     d="M 5.5 1 C 5.223 1 5 1.226562 5 1.5 L 5 2 L 6 2 L 6 1.5 C 6 1.223 5.777 1 5.5 1 z M 6 2 L 6 2.5 C 6 2.777 5.777 3 5.5 3 C 5.223 3 5 2.777 5 2.5 L 5 2 L 3.5 2 C 2.669 2 2 2.669 2 3.5 L 2 12.5 C 2 13.331 2.669 14 3.5 14 L 12.5 14 C 13.331 14 14 13.331 14 12.5 L 14 3.5 C 14 2.669 13.331 2 12.5 2 L 11 2 L 11 2.5 C 11 2.777 10.777 3 10.5 3 C 10.223 3 10 2.777 10 2.5 L 10 2 L 6 2 z M 10 2 L 11 2 L 11 1.5 C 11 1.223 10.777 1 10.5 1 C 10.223 1 10 1.226562 10 1.5 L 10 2 z M 3.5 6 L 12.5 6 C 12.777 6 13 6.223 13 6.5 L 13 12.5 C 13 12.777 12.777 13 12.5 13 L 3.5 13 C 3.223 13 3 12.777 3 12.5 L 3 6.5 C 3 6.223 3.223 6 3.5 6 z "
     style="color:#bebebe;clip-rule:nonzero;display:inline;overflow:visible;visibility:visible;opacity:1;isolation:auto;mix-blend-mode:normal;color-interpolation:sRGB;color-interpolation-filters:linearRGB;solid-color:#000000;solid-opacity:1;fill:#bebebe;fill-opacity:1;fill-rule:nonzero;stroke:none;stroke-width:1;stroke-linecap:butt;stroke-linejoin:miter;stroke-miterlimit:4;stroke-dasharray:none;stroke-dashoffset:0;stroke-opacity:1;marker:none;color-rendering:auto;image-rendering:auto;shape-rendering:auto;text-rendering:auto;enable-background:accumulate" />
</svg>
